X: 6994
T: Chicken Gone To Scotland, The
R: strathspey
M: 4/4
K: Adorian
A2a2 b>ag>e|B2g2 g>ed<B|A2a2 b>ag>f|e>de>f g>ed>B|
A2a2 b>ag>e|B2g>a g>ed<B|A2a2 b>ag>f|e>de>f g>ed>B|
|:A2B>A e>A (3efg|A2(3AAA D<GB>G|A2(3AAA e>A e>f|g>fe>f g>ed>B:|

